public/assets/images/theme-icon-star.svg

<svg fill="none" height="85" viewBox="0 0 84 85" width="84" xmlns="http://www.w3.org/2000/svg"><path d="m11.1418 20.8925c5.4119-.3426 10.8393-.5995 16.2434-1.129.5484-.1309 1.0595-.3856 1.4942-.7446.4346-.3591.7812-.8129 1.0132-1.3268 1.7053-4.7266 2.9512-9.6401 4.8434-14.28887.4065-.83062.9879-1.56343 1.7043-2.14813.7164-.584699 1.5509-1.007426 2.4462-1.2391585 1.1291-.1946715 3.2704 1.4327885 3.8934 2.7409785 2.7332 6.1127 5.1938 12.35778 7.5299 18.64178 1.2615 3.4029 2.9357 5.4508 7.0082 5.0537s8.0205-.2803 12.0385-.3816c.3893 0 .7787-.0467 1.168-.0467 4.1582 0 9.0328.4672 10.3955 4.3996.841 2.4295-1.4951 6.6266-3.4729 9.2196-2.5386 3.325-6.066 5.9336-9.3443 8.6668-1.8066 1.5574-2.227 2.7799-.7787 4.8824 5.007 7.3897 9.8037 14.9119 14.7562 22.3328 2.6942 4.0336 1.7831 5.77-2.4996 7.8413-5.3808 2.6086-9.0173 0-13.0587-2.7332-7.1483-4.8512-14.3823-9.5856-21.7331-14.1253-1.1291-.7009-3.543-.7787-4.5397 0-5.1394 3.8467-9.7881 8.3553-15.0521 11.9917-2.774 1.7819-5.9658 2.8073-9.2586 2.9746-2.336.1402-2.9979-2.5619-2.336-4.7967 2.336-7.6545 4.4229-15.418 7.3274-22.8545 1.3472-3.4495 1.4328-5.4508-1.5029-7.9504-5.6922-4.8668-11.03395-10.1229-16.49254-15.27-1.84549-1.7365-3.893434-3.9791-2.08688-6.3385 1.25369-1.6509 3.89343-2.3828 6.05039-3.1693 1.28484-.4672 2.81886-.2492 4.24383-.3348zm5.6299 8.3398c2.4373 3.1147 4.7111 6.6811 7.5845 9.6324 8.1217 8.3163 8.1217 8.1995 3.3327 18.9143-1.1602 2.5774-1.9233 5.334-2.8733 8.0049 3.385-1.4053 6.6199-3.148 9.6557-5.2017.5451-.3426 1.0824-.7008 1.6197-1.059 5.1705-3.5352 9.0094-3.4184 14.3122 0 5.9181 3.7845 11.9918 7.3353 18.0033 10.9873-2.6701-4.7936-5.5863-9.446-8.7369-13.9385-3.4807-5.1082-3.3639-6.7824 1.1602-11.2287 1.6509-1.6274 3.4886-3.1147 5.2796-4.5709 2.1491-1.7832 4.3372-3.5118 6.5176-5.2639-.3193-.436-.6308-.8799-.9423-1.316-1.3668-.2397-2.7482-.388-4.1348-.4438-3.8934.0778-7.7868-.0935-11.618.5373-6.5098 1.0746-9.7491-2.0013-11.7504-7.6935-1.4639-4.1348-3.4106-8.0983-5.5442-13.0897-.7787 2.593-1.9312 4.2828-1.6742 5.7234.8332 4.6721-1.7521 8.2151-3.543 11.945-.7009 1.4484-2.889 3.1693-4.2828 3.1148-2.4529-.1635-1.8221-2.5308-1.425-4.3373.0701-.3271-.1635-.7242-.3504-1.4951z" fill="#2b296a"/></svg>

<svg width="84" height="85" viewBox="0 0 84 85" fill="none" xmlns="http://www.w3.org/2000/svg">
<path d="M11.1418 20.8925C16.5537 20.5499 21.9811 20.293 27.3852 19.7635C27.9336 19.6326 28.4447 19.3779 28.8794 19.0189C29.314 18.6598 29.6606 18.206 29.8926 17.6921C31.5979 12.9655 32.8438 8.052 34.736 3.40323C35.1425 2.57261 35.7239 1.8398 36.4403 1.2551C37.1567 0.670401 37.9912 0.247674 38.8865 0.0159415C40.0156 -0.17873 42.1569 1.44873 42.7799 2.75692C45.5131 8.86962 47.9737 15.1147 50.3098 21.3987C51.5713 24.8016 53.2455 26.8495 57.318 26.4524C61.3905 26.0553 65.3385 26.1721 69.3565 26.0708C69.7458 26.0708 70.1352 26.0241 70.5245 26.0241C74.6827 26.0241 79.5573 26.4913 80.92 30.4237C81.761 32.8532 79.4249 37.0503 77.4471 39.6433C74.9085 42.9683 71.3811 45.5769 68.1028 48.3101C66.2962 49.8675 65.8758 51.09 67.3241 53.1925C72.3311 60.5822 77.1278 68.1044 82.0803 75.5253C84.7745 79.5589 83.8634 81.2953 79.5807 83.3666C74.1999 85.9752 70.5634 83.3666 66.522 80.6334C59.3737 75.7822 52.1397 71.0478 44.7889 66.5081C43.6598 65.8072 41.2459 65.7294 40.2492 66.5081C35.1098 70.3548 30.4611 74.8634 25.1971 78.4998C22.4231 80.2817 19.2313 81.3071 15.9385 81.4744C13.6025 81.6146 12.9406 78.9125 13.6025 76.6777C15.9385 69.0232 18.0254 61.2597 20.9299 53.8232C22.2771 50.3737 22.3627 48.3724 19.427 45.8728C13.7348 41.006 8.39305 35.7499 2.93446 30.6028C1.08897 28.8663 -0.958974 26.6237 0.84758 24.2643C2.10127 22.6134 4.74101 21.8815 6.89797 21.095C8.18281 20.6278 9.71683 20.8458 11.1418 20.7602V20.8925ZM16.7717 29.2323C19.209 32.347 21.4828 35.9134 24.3562 38.8647C32.4779 47.181 32.4779 47.0642 27.6889 57.779C26.5287 60.3564 25.7656 63.113 24.8156 65.7839C28.2006 64.3786 31.4355 62.6359 34.4713 60.5822C35.0164 60.2396 35.5537 59.8814 36.091 59.5232C41.2615 55.988 45.1004 56.1048 50.4032 59.5232C56.3213 63.3077 62.395 66.8585 68.4065 70.5105C65.7364 65.7169 62.8202 61.0645 59.6696 56.572C56.1889 51.4638 56.3057 49.7896 60.8298 45.3433C62.4807 43.7159 64.3184 42.2286 66.1094 40.7724C68.2585 38.9892 70.4466 37.2606 72.627 35.5085C72.3077 35.0725 71.9962 34.6286 71.6847 34.1925C70.3179 33.9528 68.9365 33.8045 67.5499 33.7487C63.6565 33.8265 59.7631 33.6552 55.9319 34.286C49.4221 35.3606 46.1828 32.2847 44.1815 26.5925C42.7176 22.4577 40.7709 18.4942 38.6373 13.5028C37.8586 16.0958 36.7061 17.7856 36.9631 19.2262C37.7963 23.8983 35.211 27.4413 33.4201 31.1712C32.7192 32.6196 30.5311 34.3405 29.1373 34.286C26.6844 34.1225 27.3152 31.7552 27.7123 29.9487C27.7824 29.6216 27.5488 29.2245 27.3619 28.4536L16.7717 29.2323Z" fill="#2B296A"/>
</svg>
